X:21
T:The Clare Jig                                                                                     
M:6/8                                                                                               
K:ADor                                                                                              
L:1/8                                                                                               
gf|eAA fAA|gfg age|dBA G3|BGB dBd|\                                                                 
eAA fAA|gfg age|dBd gdB|ABA A2 :|                                                                   
efg a3|aba age|dBd g3|bag fed|\                                                                     
efg a3|aba agf|dBd gdB|ABA A2 z:|
